X: 1
T: A Nice Trip To Skelligs
M: 4/4
L: 1/8
R: reel
K: Dmin
ADDD ADDD |CDDD ADDD |FEFG AFDF |GECE DCFG|
ADDD ADDD |CDDD ADDD |FEFG AFDF |GECE D4 :|
|:AFDF AFDF |GECE GECE |AFDF AFDF |AGAB AGFE |
AFDF AFDF |GECE GECE |AFDF AFDF |AGAB AGFE :|
